X:1
T:Harpswell Tide
C:David A. Kaynor September 2003
%D:2003
M:4/4
L:1/8
K:Aion-3
|: "A"EGAG AdcB | "Bm"BcAF FBB2 | "E"EGBG Beed | "A"cBBc BAA2 |
| "A"EGAG AdcB | "Bm"BcAF FBcd | "A"efge "D"a2ed | "E"cBBc"A" BAA2 :|
|: "A"cefd "E"fgg2 | "E"dfge "A"gaa2 | "A"cefd "D"fged | "E"cBBc "A"BAA2 |
| "A"cefd "E"fgg2 | "E"dfge g"A"aa2 | "D"abgf "Bm"fged | "E"cBBc "A"BAA2 :|
